X:565
T: "Liebesgezaenke"
N: Z1245
O: Europa, Mitteleuropa, Deutschland, Bayern; Tirol
R: Liebes - Lied
M: 3/4
L: 1/16
K: F
f3d | d2c2A2C2F4 | E2G2B2G2
e2d2 | d2c2B2C2E4 | F2A2c2A2
f2d2 | d2c2A2C2F4 | E2G2B2G2
e2d2 | d2c2B2C2E4 | F8

